X:1
T:A Fig For A Kiss
M:9/8
L:1/8
R:slip jig
O:Trad. (21.10.2015/NS)
K:Edor
|: "Em" G2B E2B BAG | "D" F2A D2A AGF | "Em" G2B E2B BAG | "C"  BdB "Hm" AGF E2F :|
   "C"  g2e g2e edB | "D" f2f dcd fed | "C"  g2e g2e edB | "Hm" dBA      GBd e2f  |
   "C"  g2e g2e edB | "D" f2f dcd fed |      gfe fed edA |      BdB      AGF E3   |
